X:1
T:Title
%%score { ( 1 4 ) | ( 2 3 ) }
L:1/8
M:4/4
K:F
V:1 treble nm="Grand Piano"
V:4 treble 
V:2 treble 
V:3 treble 
V:1
 z4 z2[Q:1/4=100] AB | [CAc]2 [CFc]2 [CEc]2 [CGc]2 | [CFc]4 [CFA]2 [DF]2 | %3
 [DF]2 [DFA]2 .[G,FG]2 [B,EG]2 |[M:3/4] [A,F]6 |[M:1/4] AB |[M:4/4] [CAc]2 c2 c2 c2 | c4 A2 [FA]2 | %8
 G2 c2 A2 =B2 |[M:3/4] [Ec]6 |[M:1/4] [Ec]2 |[M:4/4] z4 G2 z2 | G2 F2 z2 [Fc]2 | [CEB]4 B2 c2 | %14
[M:3/4] B2 A2 z2 |[M:1/4] [CFc]2 |[M:4/4] [Fd]2 d2 c2 c2 | f4 z4 | [DF]2 [DFA]2 .[G,FG]2 [B,EG]2 | %19
[M:7/4] [F,A,CF]6 z2 z2 z4 |[M:4/4] [B,DF]4 [A,CF]4 |] %21
V:2
 z4 z2 FG | F,2 A,2 G,2 B,2 | A,4 F,2 D,2 | z G G,,2 z A, C,2 |[M:3/4] F,6 |[M:1/4][K:treble] FG | %6
[M:4/4] F,2 [A,CF]2 [G,CE]2 [B,CG]2 | [A,CF]4[K:bass] [F,CF]2 [D,C]2 | %8
 [G,=B,F]2 [G,CE]2 [G,DF]2 [G,DF]2 |[M:3/4][K:bass] [C,C]6 |[M:1/4] [C,G,]2 | %11
[M:4/4] B,2 z[K:treble] ^F B,2[K:bass] C,2 | A,2 z2 z4 | G,2 z[K:treble] A G,2[K:bass] C,2 | %14
[M:3/4] [CF]2- [F,,CF]2 F,2 |[M:1/4] A,2 |[M:4/4] z2[K:treble] F2 E2 E2 | [A,C]2 z2[K:bass] z4 | %18
 z G G,,2 z A, C,2 |[M:7/4] F,,6 z2 z2 z4 |[M:4/4] B,,4 F,,4 |] %21
V:3
 x8 | x8 | x8 | B,,2 z2 C,2 z2 |[M:3/4] x6 |[M:1/4][K:treble] x2 |[M:4/4] x8 | x4[K:bass] x4 | x8 | %9
[M:3/4][K:bass] x6 |[M:1/4] x2 |[M:4/4] z2 C,2[K:treble] z4[K:bass] | C2- [C,C]2 A,2 C,2 | %13
 z2 C,2[K:treble] z4[K:bass] |[M:3/4] F,2 z2 z2 |[M:1/4] x2 |[M:4/4] B,4[K:treble] [B,C]4 | %17
 F2- [G,F]2[K:bass] F,2 A,,2 | B,,2 z2 C,2 z2 |[M:7/4] x14 |[M:4/4] x8 |] %21
V:4
 x8 | x8 | x8 | x8 |[M:3/4] x6 |[M:1/4] x2 |[M:4/4] x8 | x8 | x8 |[M:3/4] x6 |[M:1/4] x2 | %11
[M:4/4] [CEG]4 [CE]2- [CEA]2 | z4 C4 | z4 [CE]4 |[M:3/4] x6 |[M:1/4] x2 |[M:4/4] x8 | %17
 z2 B,2 [A,CF]2 [CF]2 | x8 |[M:7/4] x14 |[M:4/4] x8 |] %21

